X:141
T: Die Rabenmutter
N: Q0114H
O: Mitteleuropa, Oesterreich, Niederoesterreich
R: Ballade, Kinds - Mord, Strafe
M: 4/4
L: 1/4
K: G
D | GGAA | BBG
G | AADD | GGG
D | GGAA | BBG
G | AADD | G3

